svg/fluentui-system-icons/ic_fluent_cloud_checkmark_48_regular.svg

<svg width="48" height="48" viewBox="0 0 48 48" fill="none" xmlns="http://www.w3.org/2000/svg">
<path d="M13.0448 16C13.5501 10.3935 18.262 6 24 6C29.738 6 34.4499 10.3935 34.9552 16H35.25C39.5302 16 43 19.4698 43 23.75C43 24.0487 42.9831 24.3434 42.9502 24.6333C42.1752 23.7126 41.2746 22.9009 40.275 22.2246C39.6215 20.0691 37.619 18.5 35.25 18.5H33.75C33.0596 18.5 32.5 17.9404 32.5 17.25V17C32.5 12.3056 28.6944 8.5 24 8.5C19.3056 8.5 15.5 12.3056 15.5 17V17.25C15.5 17.9404 14.9404 18.5 14.25 18.5H12.75C9.8505 18.5 7.5 20.8505 7.5 23.75C7.5 26.6495 9.8505 29 12.75 29H20.627C20.3679 29.8021 20.1846 30.6382 20.0856 31.5H12.75C8.46979 31.5 5 28.0302 5 23.75C5 19.4698 8.46979 16 12.75 16H13.0448ZM44 33C44 39.0751 39.0751 44 33 44C26.9249 44 22 39.0751 22 33C22 26.9249 26.9249 22 33 22C39.0751 22 44 26.9249 44 33ZM38.2929 28.2929L31 35.5858L27.7071 32.2929C27.3166 31.9024 26.6834 31.9024 26.2929 32.2929C25.9024 32.6834 25.9024 33.3166 26.2929 33.7071L30.2929 37.7071C30.6834 38.0976 31.3166 38.0976 31.7071 37.7071L39.7071 29.7071C40.0976 29.3166 40.0976 28.6834 39.7071 28.2929C39.3166 27.9024 38.6834 27.9024 38.2929 28.2929Z" fill="#212121"/>
</svg>

<svg xmlns="http://www.w3.org/2000/svg" width="48" height="48"><path d="M13.045 16C13.55 10.393 18.262 6 24 6s10.45 4.393 10.955 10h.295a7.75 7.75 0 0 1 7.7 8.633 13.076 13.076 0 0 0-2.675-2.408A5.252 5.252 0 0 0 35.25 18.5h-1.5c-.69 0-1.25-.56-1.25-1.25V17a8.5 8.5 0 0 0-17 0v.25c0 .69-.56 1.25-1.25 1.25h-1.5a5.25 5.25 0 1 0 0 10.5h7.877c-.26.802-.442 1.638-.541 2.5H12.75a7.75 7.75 0 0 1 0-15.5h.295ZM44 33c0 6.075-4.925 11-11 11s-11-4.925-11-11 4.925-11 11-11 11 4.925 11 11Zm-5.707-4.707L31 35.586l-3.293-3.293a1 1 0 0 0-1.414 1.414l4 4a1 1 0 0 0 1.414 0l8-8a1 1 0 0 0-1.414-1.414Z"/></svg>
